svg/fluentui-system-icons/ic_fluent_document_text_16_regular.svg

<svg width="16" height="16" viewBox="0 0 16 16" fill="none" xmlns="http://www.w3.org/2000/svg">
<path d="M3 3C3 1.89543 3.89543 1 5 1H8.58579C8.98361 1 9.36514 1.15804 9.64645 1.43934L12.5607 4.35355C12.842 4.63486 13 5.01639 13 5.41421V13C13 14.1046 12.1046 15 11 15H5C3.89543 15 3 14.1046 3 13V3ZM5 2C4.44772 2 4 2.44772 4 3V13C4 13.5523 4.44772 14 5 14H11C11.5523 14 12 13.5523 12 13V6H9.5C8.67157 6 8 5.32843 8 4.5V2H5ZM9.5 5H11.7929L9 2.20711V4.5C9 4.77614 9.22386 5 9.5 5ZM5.5 8C5.22386 8 5 8.22386 5 8.5C5 8.77614 5.22386 9 5.5 9H10.5C10.7761 9 11 8.77614 11 8.5C11 8.22386 10.7761 8 10.5 8H5.5ZM5 10.5C5 10.2239 5.22386 10 5.5 10H10.5C10.7761 10 11 10.2239 11 10.5C11 10.7761 10.7761 11 10.5 11H5.5C5.22386 11 5 10.7761 5 10.5ZM5.5 12C5.22386 12 5 12.2239 5 12.5C5 12.7761 5.22386 13 5.5 13H10.5C10.7761 13 11 12.7761 11 12.5C11 12.2239 10.7761 12 10.5 12H5.5Z" fill="#212121"/>
</svg>

<svg xmlns="http://www.w3.org/2000/svg" width="16" height="16"><path d="M3 3a2 2 0 0 1 2-2h3.586a1.5 1.5 0 0 1 1.06.44l2.915 2.914A1.5 1.5 0 0 1 13 5.414V13a2 2 0 0 1-2 2H5a2 2 0 0 1-2-2V3Zm2-1a1 1 0 0 0-1 1v10a1 1 0 0 0 1 1h6a1 1 0 0 0 1-1V6H9.5A1.5 1.5 0 0 1 8 4.5V2H5Zm4.5 3h2.293L9 2.207V4.5a.5.5 0 0 0 .5.5Zm-4 3a.5.5 0 0 0 0 1h5a.5.5 0 0 0 0-1h-5ZM5 10.5a.5.5 0 0 1 .5-.5h5a.5.5 0 0 1 0 1h-5a.5.5 0 0 1-.5-.5Zm.5 1.5a.5.5 0 0 0 0 1h5a.5.5 0 0 0 0-1h-5Z"/></svg>
